build/img/c.svg

<svg xmlns="http://www.w3.org/2000/svg" xmlns:xlink="http://www.w3.org/1999/xlink" width="55" height="55" zoomAndPan="magnify" viewBox="0 0 810 809.999993"  preserveAspectRatio="xMidYMid meet" version="1.0"><path fill="#283593" d="M 386.167969 47.167969 C 397.902344 40.585938 412.351562 40.585938 424.066406 47.167969 C 482.046875 79.695312 656.523438 177.609375 714.519531 210.140625 C 726.253906 216.703125 733.476562 228.867188 733.476562 242.027344 C 733.476562 307.085938 733.476562 502.898438 733.476562 567.953125 C 733.476562 581.117188 726.253906 593.277344 714.519531 599.859375 C 656.539062 632.390625 482.066406 730.304688 424.066406 762.832031 C 412.332031 769.414062 397.886719 769.414062 386.167969 762.832031 C 328.191406 730.304688 153.714844 632.390625 95.71875 599.859375 C 84 593.277344 76.777344 581.132812 76.777344 567.972656 C 76.777344 502.914062 76.777344 307.101562 76.777344 242.046875 C 76.777344 228.882812 84 216.722656 95.734375 210.140625 C 153.695312 177.609375 328.207031 79.695312 386.167969 47.167969 Z M 386.167969 47.167969 " fill-opacity="1" fill-rule="evenodd"/><path fill="#5c6bc0" d="M 82.03125 584.726562 C 77.433594 578.578125 76.777344 572.738281 76.777344 564.878906 C 76.777344 500.203125 76.777344 305.515625 76.777344 240.820312 C 76.777344 227.726562 83.984375 215.632812 95.683594 209.101562 C 153.457031 176.765625 327.34375 79.421875 385.117188 47.066406 C 396.816406 40.515625 412.664062 40.65625 424.363281 47.203125 C 482.132812 79.542969 655.433594 176.054688 713.207031 208.394531 C 717.875 211.019531 721.433594 214.183594 724.613281 218.34375 Z M 82.03125 584.726562 " fill-opacity="1" fill-rule="evenodd"/><path fill="#ffffff" d="M 405.128906 163.152344 C 538.664062 163.152344 647.070312 271.515625 647.070312 405 C 647.070312 538.484375 538.664062 646.847656 405.128906 646.847656 C 271.59375 646.847656 163.183594 538.484375 163.183594 405 C 163.183594 271.515625 271.59375 163.152344 405.128906 163.152344 Z M 405.128906 284.074219 C 471.886719 284.074219 526.097656 338.25 526.097656 405 C 526.097656 471.734375 471.886719 525.925781 405.128906 525.925781 C 338.367188 525.925781 284.15625 471.734375 284.15625 405 C 284.15625 338.25 338.351562 284.074219 405.128906 284.074219 Z M 405.128906 284.074219 " fill-opacity="1" fill-rule="evenodd"/><path fill="#3949ab" d="M 724.578125 218.519531 C 733.496094 226.863281 733.324219 239.4375 733.324219 249.335938 C 733.324219 314.894531 732.769531 501.359375 733.476562 566.917969 C 733.546875 573.757812 731.285156 580.960938 727.894531 586.386719 L 398.09375 405 Z M 724.578125 218.519531 " fill-opacity="1" fill-rule="evenodd"/></svg>

<svg xmlns="http://www.w3.org/2000/svg" width="55" height="55" viewBox="0 0 810 810" version="1.0"><path fill="#283593" d="M386.168 47.168c11.734-6.582 26.184-6.582 37.898 0 57.98 32.527 232.457 130.441 290.454 162.973 11.734 6.562 18.957 18.726 18.957 31.886v325.926c0 13.164-7.223 25.324-18.957 31.906-57.98 32.532-232.454 130.446-290.454 162.973-11.734 6.582-26.18 6.582-37.898 0-57.977-32.527-232.453-130.441-290.45-162.973-11.718-6.582-18.94-18.726-18.94-31.886V242.047c0-13.164 7.222-25.324 18.956-31.906 57.961-32.532 232.473-130.446 290.434-162.973zm0 0" fill-rule="evenodd"/><path fill="#5c6bc0" d="M82.031 584.727c-4.597-6.149-5.254-11.989-5.254-19.848V240.82c0-13.093 7.207-25.187 18.907-31.718 57.773-32.336 231.66-129.68 289.433-162.036 11.7-6.55 27.547-6.41 39.246.137 57.77 32.34 231.07 128.852 288.844 161.192 4.668 2.625 8.227 5.789 11.406 9.949zm0 0" fill-rule="evenodd"/><path fill="#fff" d="M405.129 163.152c133.535 0 241.941 108.364 241.941 241.848S538.664 646.848 405.13 646.848 163.184 538.484 163.184 405s108.41-241.848 241.945-241.848zm0 120.922c66.758 0 120.969 54.176 120.969 120.926 0 66.734-54.211 120.926-120.97 120.926-66.76 0-120.972-54.192-120.972-120.926 0-66.75 54.196-120.926 120.973-120.926zm0 0" fill-rule="evenodd"/><path fill="#3949ab" d="M724.578 218.52c8.918 8.343 8.746 20.917 8.746 30.816 0 65.559-.554 252.023.153 317.582.07 6.84-2.192 14.043-5.582 19.469L398.094 405zm0 0" fill-rule="evenodd"/></svg>
